X: 333
T: A Rainy Day
R: jig
M: 6/8
K: Gmajor
|:e|DGB DGB|dcB c2 e|dBG FGA|BAG ABe|
d2 B BAB|dcB c2 e|dBG FGA|AGF G2:|
|:D|GBd ~g3|dcB c2 e|dBG FGA|BAG AFD|
GBd ~g3|dcB c2 e|dBG FGA|AGF G2:|

